app/src/main/assets/symbols/transport/bus_stop.svg

<?xml version="1.0" encoding="UTF-8"?>
<svg version="1.1" viewBox="0 0 12 12" xmlns="http://www.w3.org/2000/svg" xmlns:cc="http://creativecommons.org/ns#" xmlns:dc="http://purl.org/dc/elements/1.1/" xmlns:rdf="http://www.w3.org/1999/02/22-rdf-syntax-ns#">
<metadata>
<rdf:RDF>
<cc:Work rdf:about="">
<dc:format>image/svg+xml</dc:format>
<dc:type rdf:resource="http://purl.org/dc/dcmitype/StillImage"/>
<dc:title/>
</cc:Work>
</rdf:RDF>
</metadata>
<rect width="12" height="12" fill="none" visibility="hidden"/>
<path transform="translate(1,1)" d="m2 0-1 1v8h0.65625s0.10115 1 0.81275 1c0.68913 0 0.781-1 0.781-1h3.5s0.11434 1 0.781 1c0.81647 0 0.81275-1 0.81275-1h0.65625v-8l-1-1zm1 1h4v1h-4zm-1 2h6v3h-6zm0 4h1v1h-1zm5 0h1v1h-1z" fill="#0092da"/>
</svg>

﻿<?xml version="1.0" encoding="UTF-8" standalone="no"?>
<svg
   xmlns:dc="http://purl.org/dc/elements/1.1/"
   xmlns:cc="http://creativecommons.org/ns#"
   xmlns:rdf="http://www.w3.org/1999/02/22-rdf-syntax-ns#"
   xmlns:svg="http://www.w3.org/2000/svg"
   xmlns="http://www.w3.org/2000/svg"
   version="1.1"
   width="12"
   height="12"
   viewBox="0 0 12 12"
   id="svg2">
   <metadata id="metadata9">
    <rdf:RDF>
      <cc:Work rdf:about="">
        <dc:format>image/svg+xml</dc:format>
        <dc:type rdf:resource="http://purl.org/dc/dcmitype/StillImage"/>
        <dc:title/>
      </cc:Work>
    </rdf:RDF>
  </metadata>
  <defs id="defs7"/>
  <rect width="12" height="12" x="0" y="0" id="canvas" style="fill:none;stroke:none;visibility:hidden"/>
  <path d="M 2,0 1,1 1,9 1.65625,9 c 0,0 0.1011489,1 0.81275,1 C 3.1581295,10 3.25,9 3.25,9 l 3.5,0 c 0,0 0.1143421,1 0.781,1 0.8164686,0 0.81275,-1 0.81275,-1 L 9,9 9,1 8,0 z M 3,1 7,1 7,2 3,2 z M 2,3 8,3 8,6 2,6 z M 2,7 3,7 3,8 2,8 z M 7,7 8,7 8,8 7,8 z" id="bus-stop" 
  style="fill:#0092da;fill-opacity:1;stroke:none" transform="translate(1,1)"/>
</svg>
